static/images/advertPrebuilt.svg

<svg height="100" viewBox="0 0 100 100" width="100" xmlns="http://www.w3.org/2000/svg" xmlns:xlink="http://www.w3.org/1999/xlink"><defs><circle id="a" cx="35" cy="35" r="35"/><filter id="b" height="174.3%" width="174.3%" x="-37.1%" y="-31.4%"><feOffset dx="0" dy="4" in="SourceAlpha" result="shadowOffsetOuter1"/><feGaussianBlur in="shadowOffsetOuter1" result="shadowBlurOuter1" stdDeviation="8"/><feColorMatrix in="shadowBlurOuter1" type="matrix" values="0 0 0 0 0.254901961   0 0 0 0 0.458823529   0 0 0 0 0.647058824  0 0 0 0.24 0"/></filter><linearGradient id="c" x1="0%" x2="149.460671%" y1="0%" y2="71.875%"><stop offset="0" stop-color="#00eaf8"/><stop offset="1" stop-color="#6d42ef"/></linearGradient></defs><g fill="none" fill-rule="evenodd" transform="translate(15 15)"><g fill-rule="nonzero"><use fill="#000" filter="url(#b)" xlink:href="#a"/><use fill="#fff" fill-rule="evenodd" xlink:href="#a"/></g><path d="m25.5537165 13.9142814.2535696-.1177634c.8572294-.3985038 1.4064046-1.2837631 1.3990077-2.2555713 0-.9767269-.5491752-1.86435088-1.3989175-2.25963867l-.2536598-.11804718zm-20.68256444-6.99514659c-1.90993557 0-3.46373711 1.62948617-3.46373711 3.63250459v1.9669801c0 2.0030184 1.55380154 3.6325046 3.46373711 3.6325046h3.26889175v-9.23198929zm4.66925258 9.23198929h2.35979386c6.0369587 0 9.8312113 2.1821702 11.9510567 4.0127527l.2950644.2549176v-18.19761567l-.2781057.18775933c-5.9204124 3.9976185-9.5058376 4.51019675-11.9680154 4.51019675h-2.35979386zm3.18960056 11.365919c-.2822552 0-.5428609-.1837866-.6485825-.457149l-3.71216497-9.4333695h-3.49810567c-2.68597938 0-4.87113402-2.2914205-4.87113402-5.1079051v-1.9669801c0-2.81648455 2.18515464-5.10781055 4.87113402-5.10781055h7.03608244c2.4860825 0 6.1577449-.59297897 12.5365851-5.21715557.1199742-.08626524.2606057-.13214095.4058376-.13214095.1131186 0 .2252449.02884967.324201.08333299.2385052.12807362.3798583.37060003.3798583.64982701v6.83302091l.1406314.03329536c1.7006573.40361162 2.9252964 2.02146333 2.9119459 3.8470327 0 1.8522434-1.2008247 3.4350026-2.9200644 3.8504379l-.1399098.0338628v6.8249809c0 .3146033-.1943943.5953437-.4836856.6984458-.0659407.0229851-.1409922.0353763-.216134.0353763-.2203737 0-.4255026-.1102909-.5627062-.3025905-.1021134-.1409377-1.0475644-1.4033236-3.0170361-2.6214419-2.6109278-1.6148248-5.7621907-2.433588-9.3665592-2.433588h-2.00898201l3.49440721 8.8731183c.1449614.3828967-.0239046.8071287-.385451.9632007-.0920103.0363222-.1795103.0541995-.2701675.0541995zm18.0916172-15.2325789c-.3899613 0-.7072165-.332859-.7072165-.7419568 0-.4089086.3172552-.741673.7072165-.741673h3.4567011c.3966366 0 .7072164.3258594.7072164.741673 0 .4090978-.3171649.7419568-.7072164.7419568zm-.4041688-3.22378521c-.2853222 0-.5485438-.18908358-.6550773-.47067529-.1371134-.37816716.0398711-.80523688.3956443-.94948523l3.3489949-1.37778461c.0838917-.03480879.1709407-.05240236.2592525-.05240236.2901031 0 .5471006.18388119.6548067.46849974.1428866.37750504-.0350902.80703408-.396817.95752531l-3.3478221 1.37674413c-.0884923.03102522-.1759923.04757831-.258982.04757831zm3.3485528 7.79398931c-.0992268 0-.1814046-.0148505-.2584407-.0469162l-3.3487242-1.3777846c-.175-.0726445-.3129253-.2123525-.3878866-.3930177-.0748711-.1805706-.0779381-.3808157-.0085696-.5640347.1077062-.2844294.3647036-.468216.6548969-.468216.0883119 0 .1752706.0175936.2584407.0522132l3.3492655 1.3773117c.1763531.0734011.3149098.214528.3895103.3970849.0727964.1780167.075232.3740053.0070361.5517382-.1067139.2825376-.3699356.4716212-.6555284.4716212z" fill="url(#c)" transform="matrix(-1 0 0 1 53 21)"/></g></svg>

<?xml version="1.0" encoding="UTF-8"?>
<svg width="100px" height="100px" viewBox="0 0 100 100" version="1.1" xmlns="http://www.w3.org/2000/svg" xmlns:xlink="http://www.w3.org/1999/xlink">
    <!-- Generator: sketchtool 46.2 (44496) - http://www.bohemiancoding.com/sketch -->
    <title>7260CA6A-EFBF-4F56-B055-4B6B26A993D1</title>
    <desc>Created with sketchtool.</desc>
    <defs>
        <circle id="path-1" cx="35" cy="35" r="35"></circle>
        <filter x="-37.1%" y="-31.4%" width="174.3%" height="174.3%" filterUnits="objectBoundingBox" id="filter-2">
            <feOffset dx="0" dy="4" in="SourceAlpha" result="shadowOffsetOuter1"></feOffset>
            <feGaussianBlur stdDeviation="8" in="shadowOffsetOuter1" result="shadowBlurOuter1"></feGaussianBlur>
            <feColorMatrix values="0 0 0 0 0.254901961   0 0 0 0 0.458823529   0 0 0 0 0.647058824  0 0 0 0.24 0" type="matrix" in="shadowBlurOuter1"></feColorMatrix>
        </filter>
        <linearGradient x1="0%" y1="0%" x2="149.460671%" y2="71.875%" id="linearGradient-3">
            <stop stop-color="#00EAF8" offset="0%"></stop>
            <stop stop-color="#6D42EF" offset="100%"></stop>
        </linearGradient>
    </defs>
    <g id="Symbols" stroke="none" stroke-width="1" fill="none" fill-rule="evenodd">
        <g id="ic/advert">
            <g id="Group" transform="translate(15.000000, 15.000000)">
                <g id="Oval" fill-rule="nonzero">
                    <use fill="black" fill-opacity="1" filter="url(#filter-2)" xlink:href="#path-1"></use>
                    <use fill="#FFFFFF" fill-rule="evenodd" xlink:href="#path-1"></use>
                </g>
                <g id="Page-1" transform="translate(35.500000, 35.000000) scale(-1, 1) translate(-35.500000, -35.000000) translate(18.000000, 21.000000)">
                    <g id="Group-3" transform="translate(0.000000, 0.086171)"></g>
                    <path d="M25.5537165,13.9142814 L25.8072861,13.796518 C26.6645155,13.3980142 27.2136907,12.5127549 27.2062938,11.5409467 C27.2062938,10.5642198 26.6571186,9.67659582 25.8073763,9.28130803 L25.5537165,9.16326085 L25.5537165,13.9142814 Z M4.87115206,6.91913481 C2.96121649,6.91913481 1.40741495,8.54862098 1.40741495,10.5516394 L1.40741495,12.5186195 C1.40741495,14.5216379 2.96121649,16.1511241 4.87115206,16.1511241 L8.14004381,16.1511241 L8.14004381,6.91913481 L4.87115206,6.91913481 Z M9.54040464,16.1511241 L11.9001985,16.1511241 C17.9371572,16.1511241 21.7314098,18.3332943 23.8512552,20.1638768 L24.1463196,20.4187944 L24.1463196,2.22117873 L23.8682139,2.40893806 C17.9478015,6.40655656 14.3623763,6.91913481 11.9001985,6.91913481 L9.54040464,6.91913481 L9.54040464,16.1511241 Z M12.7300052,27.5170431 C12.44775,27.5170431 12.1871443,27.3332565 12.0814227,27.0598941 L8.36925773,17.6265246 L4.87115206,17.6265246 C2.18517268,17.6265246 1.80412371e-05,15.3351041 1.80412371e-05,12.5186195 L1.80412371e-05,10.5516394 C1.80412371e-05,7.73515485 2.18517268,5.44382885 4.87115206,5.44382885 L11.9072345,5.44382885 C14.393317,5.44382885 18.0649794,4.85084988 24.4438196,0.226673283 C24.5637938,0.140408038 24.7044253,0.0945323315 24.8496572,0.0945323315 C24.9627758,0.0945323315 25.0749021,0.123382002 25.1738582,0.177865315 C25.4123634,0.305938936 25.5537165,0.54846535 25.5537165,0.827692329 L25.5537165,7.66071324 L25.6943479,7.6940086 C27.3950052,8.09762022 28.6196443,9.71547193 28.6062938,11.5410413 C28.6062938,13.3932847 27.4054691,14.9760439 25.6862294,15.3914792 L25.5463196,15.425342 L25.5463196,22.2503229 C25.5463196,22.5649262 25.3519253,22.8456666 25.062634,22.9487687 C24.9966933,22.9717538 24.9216418,22.984145 24.8465,22.984145 C24.6261263,22.984145 24.4209974,22.8738541 24.2837938,22.6815545 C24.1816804,22.5406168 23.2362294,21.2782309 21.2667577,20.0601126 C18.6558299,18.4452878 15.504567,17.6265246 11.9001985,17.6265246 L9.89121649,17.6265246 L13.3856237,26.4996429 C13.5305851,26.8825396 13.3617191,27.3067716 13.0001727,27.4628436 C12.9081624,27.4991658 12.8206624,27.5170431 12.7300052,27.5170431 Z M30.8216224,12.2844642 C30.4316611,12.2844642 30.1144059,11.9516052 30.1144059,11.5425074 C30.1144059,11.1335988 30.4316611,10.8008344 30.8216224,10.8008344 L34.2783235,10.8008344 C34.6749601,10.8008344 34.9855399,11.1266938 34.9855399,11.5425074 C34.9855399,11.9516052 34.668375,12.2844642 34.2783235,12.2844642 L30.8216224,12.2844642 Z M30.4174536,9.06067899 C30.1321314,9.06067899 29.8689098,8.87159541 29.7623763,8.5900037 C29.6252629,8.21183654 29.8022474,7.78476682 30.1580206,7.64051847 L33.5070155,6.26273386 C33.5909072,6.22792507 33.6779562,6.2103315 33.766268,6.2103315 C34.0563711,6.2103315 34.3133686,6.39421269 34.4210747,6.67883124 C34.5639613,7.05633628 34.3859845,7.48586532 34.0242577,7.63635655 L30.6764356,9.01310068 C30.5879433,9.0441259 30.5004433,9.06067899 30.4174536,9.06067899 Z M33.7660064,16.8546683 C33.6667796,16.8546683 33.5846018,16.8398178 33.5075657,16.8077521 L30.1588415,15.4299675 C29.9838415,15.357323 29.8459162,15.217615 29.7709549,15.0369498 C29.6960838,14.8563792 29.6930168,14.6561341 29.7623853,14.4729151 C29.8700915,14.1884857 30.1270889,14.0046991 30.4172822,14.0046991 C30.5055941,14.0046991 30.5925528,14.0222927 30.6757229,14.0569123 L34.0249884,15.434224 C34.2013415,15.5076251 34.3398982,15.648752 34.4144987,15.8313089 C34.4872951,16.0093256 34.4897307,16.2053142 34.4215348,16.3830471 C34.3148209,16.6655847 34.0515992,16.8546683 33.7660064,16.8546683 Z" id="Combined-Shape" fill="url(#linearGradient-3)"></path>
                </g>
            </g>
        </g>
    </g>
</svg>
